src/assets/AddBtn.svg

<svg xmlns="http://www.w3.org/2000/svg" width="50" height="50" fill="none"><path fill="#315AF1" d="M25 0C11.2 0 0 11.2 0 25s11.2 25 25 25 25-11.2 25-25S38.8 0 25 0m10 27.5h-7.5V35c0 1.375-1.125 2.5-2.5 2.5a2.507 2.507 0 0 1-2.5-2.5v-7.5H15a2.507 2.507 0 0 1-2.5-2.5c0-1.375 1.125-2.5 2.5-2.5h7.5V15c0-1.375 1.125-2.5 2.5-2.5s2.5 1.125 2.5 2.5v7.5H35c1.375 0 2.5 1.125 2.5 2.5s-1.125 2.5-2.5 2.5"/></svg>

<svg width="50" height="50" viewBox="0 0 50 50" fill="none" xmlns="http://www.w3.org/2000/svg">
<path d="M25 0C11.2 0 0 11.2 0 25C0 38.8 11.2 50 25 50C38.8 50 50 38.8 50 25C50 11.2 38.8 0 25 0ZM35 27.5H27.5V35C27.5 36.375 26.375 37.5 25 37.5C23.625 37.5 22.5 36.375 22.5 35V27.5H15C13.625 27.5 12.5 26.375 12.5 25C12.5 23.625 13.625 22.5 15 22.5H22.5V15C22.5 13.625 23.625 12.5 25 12.5C26.375 12.5 27.5 13.625 27.5 15V22.5H35C36.375 22.5 37.5 23.625 37.5 25C37.5 26.375 36.375 27.5 35 27.5Z" fill="#315AF1"/>
</svg>
